images/quick-search-action.svg

<?xml version="1.0" encoding="UTF-8" standalone="no"?>
<svg width="33px" height="34px" viewBox="0 0 33 34" version="1.1" xmlns="http://www.w3.org/2000/svg" xmlns:xlink="http://www.w3.org/1999/xlink" xmlns:sketch="http://www.bohemiancoding.com/sketch/ns">
    <!-- Generator: Sketch 3.5.1 (25234) - http://www.bohemiancoding.com/sketch -->
    <title>icon</title>
    <desc>Created with Sketch.</desc>
    <defs>
        <path d="M8,16 C12.418278,16 16,12.418278 16,8 C16,3.581722 12.418278,0 8,0 C3.581722,0 0,3.581722 0,8 C0,12.418278 3.581722,16 8,16 Z M8,14 C11.3137085,14 14,11.3137085 14,8 C14,4.6862915 11.3137085,2 8,2 C4.6862915,2 2,4.6862915 2,8 C2,11.3137085 4.6862915,14 8,14 Z" id="path-1"></path>
    </defs>
    <g id="Landing" stroke="none" stroke-width="1" fill="none" fill-rule="evenodd" sketch:type="MSPage">
        <g id="landing-features-03" sketch:type="MSArtboardGroup" transform="translate(-1415.000000, -665.000000)">
            <g id="Group" sketch:type="MSLayerGroup" transform="translate(-642.000000, 126.000000)">
                <g id="Group-2" transform="translate(1588.000000, 197.000000)">
                    <g id="item" transform="translate(466.000000, 330.000000)">
                        <g id="icon" transform="translate(3.000000, 12.000000)">
                            <g id="Path-277" transform="translate(6.000000, 6.000000)">
                                <mask id="mask-2" sketch:name="Mask" fill="white">
                                    <use xlink:href="#path-1"></use>
                                </mask>
                                <use id="Mask" sketch:type="MSShapeGroup" xlink:href="#path-1"></use>
                                <path d="M7.06198702,-0.332311057 L7.05309211,16.0438271 L1.14375638,15.0376109 C1.14375638,15.0376109 -1.14519828,8.90184514 -1.14519832,8.68431033 C-1.14519835,8.46677551 -1.08605502,4.32393571 -1.08605502,4.32393589 C-1.08605502,4.32393608 2.18804911,0.891284131 2.46488336,0.614605844 C2.74171761,0.337927557 6.23351275,-1.08244776 6.23351275,-1.08244776 L7.06198702,-0.332311057 Z" fill="#5DD572" sketch:type="MSShapeGroup" mask="url(#mask-2)"></path>
                            </g>
                            <path d="M13.015625,8.0625 C13.5679097,8.0625 14.015625,7.61478475 14.015625,7.0625 C14.015625,6.51021525 13.5679097,6.0625 13.015625,6.0625 C12.4633403,6.0625 12.015625,6.51021525 12.015625,7.0625 C12.015625,7.61478475 12.4633403,8.0625 13.015625,8.0625 Z" id="Oval-157" fill="#5DD572" sketch:type="MSShapeGroup"></path>
                            <path d="M13,21.9375 C13.5522847,21.9375 14,21.4897847 14,20.9375 C14,20.3852153 13.5522847,19.9375 13,19.9375 C12.4477153,19.9375 12,20.3852153 12,20.9375 C12,21.4897847 12.4477153,21.9375 13,21.9375 Z" id="Oval-157" fill="#5DD572" sketch:type="MSShapeGroup"></path>
                        </g>
                    </g>
                </g>
            </g>
        </g>
    </g>
</svg>

<svg width="33" height="34" viewBox="0 0 33 34" xmlns="http://www.w3.org/2000/svg" xmlns:xlink="http://www.w3.org/1999/xlink"><title>icon</title><defs><path d="M8 16c4.418 0 8-3.582 8-8s-3.582-8-8-8-8 3.582-8 8 3.582 8 8 8zm0-2c3.314 0 6-2.686 6-6s-2.686-6-6-6-6 2.686-6 6 2.686 6 6 6z" id="a"/></defs><g fill="none" fill-rule="evenodd"><g transform="translate(6 6)"><mask id="b" fill="#fff"><use xlink:href="#a"/></mask><use xlink:href="#a"/><path d="M7.062-.332l-.01 16.376-5.908-1.006s-2.29-6.136-2.29-6.354c0-.217.06-4.36.06-4.36S2.188.89 2.464.614C2.743.34 6.235-1.08 6.235-1.08l.828.75z" fill="#5DD572" mask="url(#b)"/></g><path d="M13.016 8.063c.552 0 1-.448 1-1 0-.553-.448-1-1-1-.553 0-1 .447-1 1 0 .552.447 1 1 1zM13 21.938c.552 0 1-.448 1-1 0-.553-.448-1-1-1s-1 .447-1 1c0 .552.448 1 1 1z" fill="#5DD572"/></g></svg>
